X: 10411
T: BESSIE'S HAGGIS
Q: "Moderate."
%R: air, , reel
B: W. Hamilton "Universal Tune-Book" Vol. 1 Glasgow 1844 p.41 #1
S: http://imslp.org/wiki/Hamilton's_Universal_Tune-Book_(Various)
Z: 2016 John Chambers <jc:trillian.mit.edu>
M: C
L: 1/16
K: D
%%slurgraces yes
%%graceslurs yes
% - - - - - - - - - - - - - - - - - - - - - - - - -
|:\
D4F3E D4A4 | (B2A2)(G2F2) (TE3D)(E2F2) |\
D4(F2E2) D4A4 | (B3c)(d3A) F4A4 |\
B4d4 F4A4 | (B2A2)(G2F2) (TE3D)(E2F2) |\
D4F4 A4(d3e) | f4D4 "^Fin."F4A4 H:|\
|:\
D4A4 d4(Tc2B2) | (c3d) (cde2) E6F2 |\
D4A4 d4(d2e2) | (d2c2)(B2A2) d6e2 |
(f2d2)(e2c2) (d2B2)(c2A2) | (B2A2)(G2F2) (E3D)(E2F2) |\
(D2E2)(F2G2) (A2B2)(c2A2) | (d3e)(f2D2) F4A4 :|\
|:\
d4(f3e) (defg) (a2f2) | (b2a2)(g2f2) Te3d(e2f2) |\
(d2f2)(A2d2) (FEFG) (A2F2) | (BABc) (BcdA) (F3G)(A2F2) |
(BABc) (BcdB) (FEFG) (FGAF) | (BcAB) (GAFG) (TE3D)(E2F2) |\
D2(DE) F2(FG) (AcBA) (dcde) | {g}f4D4 F4A4 :|\
|:\
D2(DE) F2A2 d4(c2B2) | c3d (cde2) (TE3D)(E2F2) |
D2(DE FDF)A (d2c2)(d2e2) | (d2c2)(B2A2) (d2c2)(d2e2) |\
(fdTd>cd/) (ecTc>Bc/) (dBTB>AB/) (cATA>GA/) | (BcAB) (GAFG) TE3DE2F2 |\
D(FE)(G F)(AG)(B A)(cB)d c.A.B.c | (dcde) (defD) TF4 "^D.C."A4 |]
% - - - - - - - - - - - - - - - - - - - - - - - - -

%%sep 1 1 500
%%sep 1 1 500

